X:1
T:Title
%%score ( 1 2 3 ) { 4 | 5 }
L:1/8
Q:1/4=115
M:4/4
K:C
V:1 treble nm="Grand Piano, Unnamed-000"
V:2 treble 
V:3 treble 
V:4 bass nm="Choir Pad, Was Frag' Ich"
V:5 bass 
V:1
 [DG]2 [CE]2 DC [CG]2 | [EG]2 [FA]6 | [DA]2 DC [B,D]2 [CG]2 | z4 D2 z2 | [CG]2 [CA]2 [FA]2 G-[EG] | %5
w: By~Ahasuerus~Fritsch~(1629\-1701) * * * *|||||
 [DF]2 [CE]6 | D2 [CE]2 [C^F]2 [B,G]2 | [EA]2 B2 AG [DG]2 | [DG]2 G-[DG] G-[FG] [Gc]2 | %9
w: ||||
 [E_B]2 [FA]6 | [GA]2 [GA]2 [^FA]2 d-[Ed] | c2 z2 z4 | z4 z2 A2 | [FB]2 [Ec]6 | z2 G2 .F2 z2 | %15
w: ||||||
 [B,D]2 [G,C]6- | [G,C]2 z2 z4 |] %17
w: ||
V:2
 z4 B,2 z2 | x8 | x8 | [DF]2 E2 z B, [G,C]2 | z4 z2 .F2 | x8 | x8 | z2 D4 z2 | z2 .E2 .E2 z2 | x8 | %10
 z4 z2 .^F2 | ED [DB]6 | [CG]2 [CA]2 [CG]2 FE | x8 | [DG]2 ED C-[CE] [CD]2 | x8 | x8 |] %17
V:3
 x8 | x8 | x8 | z2 DC- C z z2 | x8 | x8 | x8 | x8 | x8 | x8 | x8 | x8 | x8 | x8 | x8 | x8 | x8 |] %17
V:4
 G,2 G,2 F,2 G,2 | C2 C6 | C2 B,A, G,F, G,2 | G,2 G,4 E,2 | G,2 F,2 A,2 B,C | CB, G,6 | %6
 G,2 G,2 A,2 G,2 | G,2 G,2 ^F,2 B,2 | G,2[K:treble] C2 C2 G,2 | C2 C6 | E2 D2[K:bass] A,2 A,G, | %11
 G,^F, G,6 | G,2 F,2 G,2[K:treble] DC | D2 C6 | D2[K:bass] G,2 A,2 A,2 | G,F, E,6- | E,2 z2 z4 |] %17
V:5
 B,,2 C,2 D,2 E,2 | C,2 F,6 | ^F,2 G,2 z2 E,D, | C,B,, C,2 G,,2 C,2 | E,2 z2 D,2 G,2 | G,,2 C,6 | %6
 B,,2 C,2 B,,A,, E,2 | D,C, D,4 G,,2 | E,2 z2 C,D, E,2 | C,2 F,6 | ^C,2 D,E, D,=C,B,,C, | %11
 D,2 G,,6 | E,2 z2 E,2 D,2 | ^G,,2 A,,6 | B,,2 C,B,, A,,G,, F,,2 | G,,2 [C,,C,]6- | %16
 [C,,C,]2 z2 z4 |] %17

